images/icons/shopping_cart_icon.svg

<svg width="25" height="26" viewBox="0 0 25 26" fill="none" xmlns="http://www.w3.org/2000/svg">
<path d="M7.29166 23.4166C6.71874 23.4166 6.22811 23.2125 5.81978 22.8041C5.41145 22.3958 5.20763 21.9055 5.20832 21.3333C5.20832 20.7604 5.41249 20.2698 5.82082 19.8614C6.22916 19.4531 6.71943 19.2493 7.29166 19.25C7.86457 19.25 8.3552 19.4541 8.76353 19.8625C9.17186 20.2708 9.37568 20.7611 9.37499 21.3333C9.37499 21.9062 9.17082 22.3969 8.76249 22.8052C8.35416 23.2135 7.86388 23.4173 7.29166 23.4166ZM17.7083 23.4166C17.1354 23.4166 16.6448 23.2125 16.2364 22.8041C15.8281 22.3958 15.6243 21.9055 15.625 21.3333C15.625 20.7604 15.8292 20.2698 16.2375 19.8614C16.6458 19.4531 17.1361 19.2493 17.7083 19.25C18.2812 19.25 18.7719 19.4541 19.1802 19.8625C19.5885 20.2708 19.7924 20.7611 19.7917 21.3333C19.7917 21.9062 19.5875 22.3969 19.1792 22.8052C18.7708 23.2135 18.2805 23.4173 17.7083 23.4166ZM6.40624 6.74998L8.90624 11.9583H16.1979L19.0625 6.74998H6.40624ZM7.29166 18.2083C6.51041 18.2083 5.92013 17.8653 5.52082 17.1791C5.12152 16.493 5.10416 15.8118 5.46874 15.1354L6.87499 12.5833L3.12499 4.66665H2.05728C1.76214 4.66665 1.51909 4.56665 1.32811 4.36665C1.13714 4.16665 1.04166 3.91943 1.04166 3.62498C1.04166 3.32984 1.14166 3.08227 1.34166 2.88227C1.54166 2.68227 1.78888 2.58262 2.08332 2.58332H3.77603C3.967 2.58332 4.1493 2.6354 4.32291 2.73957C4.49652 2.84373 4.62673 2.9913 4.71353 3.18227L5.41666 4.66665H20.7812C21.25 4.66665 21.5712 4.84026 21.7448 5.18748C21.9184 5.53471 21.9097 5.89929 21.7187 6.28123L18.0208 12.9479C17.8298 13.2951 17.5781 13.5642 17.2656 13.7552C16.9531 13.9462 16.5972 14.0416 16.1979 14.0416H8.43749L7.29166 16.125H18.776C19.0712 16.125 19.3142 16.225 19.5052 16.425C19.6962 16.625 19.7917 16.8722 19.7917 17.1666C19.7917 17.4618 19.6917 17.7094 19.4917 17.9094C19.2917 18.1094 19.0444 18.209 18.75 18.2083H7.29166Z" fill="white"/>
</svg>

<svg xmlns="http://www.w3.org/2000/svg" width="25" height="26" fill="none"><path fill="#fff" d="M7.292 23.417a2.004 2.004 0 0 1-1.472-.613 2 2 0 0 1-.611-1.471c0-.573.204-1.064.613-1.472a2 2 0 0 1 1.471-.611c.573 0 1.064.204 1.472.613a2 2 0 0 1 .611 1.471c0 .573-.204 1.064-.613 1.472a2 2 0 0 1-1.471.611zm10.417 0a2.004 2.004 0 0 1-1.472-.613 2 2 0 0 1-.611-1.471c0-.573.204-1.064.613-1.472a2 2 0 0 1 1.471-.611c.573 0 1.064.204 1.472.613a2 2 0 0 1 .611 1.471c0 .573-.204 1.064-.612 1.472a2 2 0 0 1-1.471.611zM6.406 6.75l2.5 5.208h7.292l2.865-5.208H6.406zm.885 11.458c-.781 0-1.372-.343-1.771-1.029s-.417-1.367-.052-2.044l1.406-2.552-3.75-7.917H2.057c-.295 0-.538-.1-.729-.3s-.286-.447-.286-.742.1-.543.3-.743.447-.3.742-.299h1.693c.191 0 .373.052.547.156a.97.97 0 0 1 .391.443l.703 1.484h15.365c.469 0 .79.174.964.521s.165.712-.026 1.094l-3.698 6.667a2.12 2.12 0 0 1-.755.807 2.004 2.004 0 0 1-1.068.286H8.44l-1.146 2.083h11.484c.295 0 .538.1.729.3s.287.447.287.742-.1.543-.3.743-.447.3-.742.299H7.292z"/></svg>
